X: 1
T: Akkor kezdnek a lányok, 
S: Kolumbán Samu, A dévai csángók népdalaiból, Etnográfia XV, 1904. 17. sz
M:4/4
L:1/4
K:F
D/D/F/F/ E/D/A, | D/D/F/F/ A/A/G/F/ | E<D D z |
D/D/F/F/ E/D/A, | D/D/F/F/ A/A/G/F/ | E<D D z |
A A B A | G>G E<C | FG A2 |
D/D/F/F/ E/D/A, | D/D/F/F/ A/A/G/F/ | E<D D z |
